X: 6
T: March Of The Meeatoiteen Bull
R: reel
M: 4/4
L: 1/8
K: Amix
|:e2 | "Am"AAAB e3f | edBd e2g2 | "G"GGGB d3e | dBGB "E7"d2e2 |
"Am"AAAB e3f | edBd "D7"e2a2 | "G"g2ea "Em"efed | "Am"B2AA A2 :|
e2 | "Am"a4 e2a2 | e2ef "(D)"g2a2 | "G"GGGB d3e | dBGB "E7"d2g2 |
"Am"a4 e2a2 | e2ef "(D)"g2a2 | "G"g2ea "Em"efed | "Am"B2AA A2e2 ||
"Am"a4 e2a2 | edef "(D)"g2a2 | "G"GGGB d3e | dBGB "E7"d2e2 |
"Am"AAAB e3f | edBd "D7"e2a2 | "G"g2ea "Em"efed | "Am"B2AA A4 |]


